N0010 (Filename: ESTET_CPROS.tap)
N0020 (Post processor: PROMA SERIES.scpost)
N0030 (Date: 20/10/2025)
N0040 G21 (Units: Metric)
N0050 G53 G90 G91.1 G40
N0060 F1
N0070 (Part: ESTET_CPROS)
N0080 (Operation: Offset externo, 0, T3: Perfuração 8-10-12mm)
N0090 M06 T3 F1550  (Perfuração 8-10-12mm)
N0100 G00 Z10.0000
N0110 X370.0000 Y-11.1000
N0120 Z3.2000
N0130 G28.1 Z3.00
N0140 G92 Z0.0
N0150 G00 Z1.6000
N0160 G92 Z0.0
N0170 G00 Z3.2000
N0180 M03
N0190 G04 P0.75
N0200 G01 Z1.6000 F500.0
N0210 Y-1.1000 F1550.0
N0220 X0.0000
N0230 G02 X-1.1000 Y0.0000 I0.0000 J1.1000
N0240 G01 Y300.0000
N0250 G02 X0.0000 Y301.1000 I1.1000 J0.0000
N0260 G01 X370.0000
N0270 G02 X371.1000 Y300.0000 I0.0000 J-1.1000
N0280 G01 Y0.0000
N0290 (Part: ESTET_CHEPOBL)
N0300 G03 X377.5000 Y-6.4000 I6.4000 J0.0000
N0310 (Operation: Offset externo, 0, T3: Perfuração 8-10-12mm)
N0320 M05
N0330 G04 P2
N0340 G00 Z10.0000
N0350 X473.3500 Y56.9109
N0360 Z3.2000
N0370 G28.1 Z3.00
N0380 G92 Z0.0
N0390 G00 Z1.6000
N0400 G92 Z0.0
N0410 G00 Z3.2000
N0420 M03
N0430 G04 P0.75
N0440 G01 Z1.6000 F500.0
N0450 X463.3500 F1550.0
N0460 Y40.0000
N0470 G03 X476.6500 I6.6500 J0.0000
N0480 G01 Y90.0000
N0490 G03 X463.3500 I-6.6500 J0.0000
N0500 G01 Y56.9109
N0510 G03 X469.7500 Y50.5109 I6.4000 J0.0000
N0520 M05
N0530 G04 P2
N0540 G00 Z10.0000
N0550 X584.8688 Y42.3688
N0560 Z3.2000
N0570 G28.1 Z3.00
N0580 G92 Z0.0
N0590 G00 Z1.6000
N0600 G92 Z0.0
N0610 G00 Z3.2000
N0620 M03
N0630 G04 P0.75
N0640 G01 Z1.6000 F500.0
N0650 X577.7977 Y35.2977 F1550.0
N0660 G03 X589.1500 Y40.0000 I4.7023 J4.7023
N0670 G01 Y90.0000
N0680 G03 X575.8500 I-6.6500 J0.0000
N0690 G01 Y40.0000
N0700 G03 X577.7977 Y35.2977 I6.6500 J0.0000
N0710 X586.1597 Y38.7614 I2.4492 J5.9128
N0720 M05
N0730 G04 P2
N0740 G00 Z10.0000
N0750 X697.3688 Y87.6312
N0760 Z3.2000
N0770 G28.1 Z3.00
N0780 G92 Z0.0
N0790 G00 Z1.6000
N0800 G92 Z0.0
N0810 G00 Z3.2000
N0820 M03
N0830 G04 P0.75
N0840 G01 Z1.6000 F500.0
N0850 X690.2977 Y94.7023 F1550.0
N0860 G03 X688.3500 Y90.0000 I4.7023 J-4.7023
N0870 G01 Y40.0000
N0880 G03 X701.6500 I6.6500 J0.0000
N0890 G01 Y90.0000
N0900 G03 X690.2977 Y94.7023 I-6.6500 J0.0000
N0910 Y85.6513 I4.5255 J-4.5255
N0920 M05
N0930 G04 P2
N0940 G00 Z10.0000
N0950 X697.3688 Y322.6312
N0960 Z3.2000
N0970 G28.1 Z3.00
N0980 G92 Z0.0
N0990 G00 Z1.6000
N1000 G92 Z0.0
N1010 G00 Z3.2000
N1020 M03
N1030 G04 P0.75
N1040 G01 Z1.6000 F500.0
N1050 X690.2977 Y329.7023 F1550.0
N1060 G03 X688.3500 Y325.0000 I4.7023 J-4.7023
N1070 G01 Y275.0000
N1080 G03 X701.6500 I6.6500 J0.0000
N1090 G01 Y325.0000
N1100 G03 X690.2977 Y329.7023 I-6.6500 J0.0000
N1110 Y320.6513 I4.5255 J-4.5255
N1120 M05
N1130 G04 P2
N1140 G00 Z10.0000
N1150 X580.1312 Y277.3688
N1160 Z3.2000
N1170 G28.1 Z3.00
N1180 G92 Z0.0
N1190 G00 Z1.6000
N1200 G92 Z0.0
N1210 G00 Z3.2000
N1220 M03
N1230 G04 P0.75
N1240 G01 Z1.6000 F500.0
N1250 X587.2023 Y270.2977 F1550.0
N1260 G03 X589.1500 Y275.0000 I-4.7023 J4.7023
N1270 G01 Y325.0000
N1280 G03 X575.8500 I-6.6500 J0.0000
N1290 G01 Y275.0000
N1300 G03 X587.2023 Y270.2977 I6.6500 J0.0000
N1310 Y279.3487 I-4.5255 J4.5255
N1320 M05
N1330 G04 P2
N1340 G00 Z10.0000
N1350 X472.3688 Y277.3688
N1360 Z3.2000
N1370 G28.1 Z3.00
N1380 G92 Z0.0
N1390 G00 Z1.6000
N1400 G92 Z0.0
N1410 G00 Z3.2000
N1420 M03
N1430 G04 P0.75
N1440 G01 Z1.6000 F500.0
N1450 X465.2977 Y270.2977 F1550.0
N1460 G03 X476.6500 Y275.0000 I4.7023 J4.7023
N1470 G01 Y325.0000
N1480 G03 X463.3500 I-6.6500 J0.0000
N1490 G01 Y275.0000
N1500 G03 X465.2977 Y270.2977 I6.6500 J0.0000
N1510 X473.6597 Y273.7614 I2.4492 J5.9128
N1520 M05
N1530 G04 P2
N1540 G00 Z10.0000
N1550 X391.6299 Y376.1000
N1560 Z3.2000
N1570 G28.1 Z3.00
N1580 G92 Z0.0
N1590 G00 Z1.6000
N1600 G92 Z0.0
N1610 G00 Z3.2000
N1620 M03
N1630 G04 P0.75
N1640 G01 Z1.6000 F500.0
N1650 Y366.1000 F1550.0
N1660 X775.0000
N1670 G02 X776.1000 Y365.0000 I0.0000 J-1.1000
N1680 G01 Y0.0000
N1690 G02 X775.0000 Y-1.1000 I-1.1000 J0.0000
N1700 G01 X390.0000
N1710 G02 X388.9000 Y0.0000 I0.0000 J1.1000
N1720 G01 Y365.0000
N1730 G02 X390.0000 Y366.1000 I1.1000 J0.0000
N1740 G01 X391.6299
N1750 G03 X398.0299 Y372.5000 I0.0000 J6.4000
N1760 M05
N1770 G04 P2
N1780 G00 Z10.0000
N1790 X0.0000 Y0.0000
N1800 M05 M30
