N0010 (Filename: ESTET_CPMNC.tap)
N0020 (Post processor: PROMA SERIES.scpost)
N0030 (Date: 17/10/2025)
N0040 G21 (Units: Metric)
N0050 G53 G90 G91.1 G40
N0060 F1
N0070 (Part: ESTET_CPMNC)
N0080 (Operation: Offset externo, 0, T3: Perfuração 8-10-12mm)
N0090 M06 T3 F1550  (Perfuração 8-10-12mm)
N0100 G00 Z10.0000
N0110 X40.6971 Y68.3029
N0120 Z3.2000
N0130 G28.1 Z3.00
N0140 G92 Z0.0
N0150 G00 Z1.6000
N0160 G92 Z0.0
N0170 G00 Z3.2000
N0180 M03
N0190 G04 P0.75
N0200 G01 Z1.6000 F500.0
N0210 X47.7681 Y61.2319 F1550.0
N0220 G03 I-8.7681 J8.7681
N0230 Y70.2828 I-4.5255 J4.5255
N0240 M05
N0250 G04 P2
N0260 G00 Z10.0000
N0270 X80.1000 Y198.6003
N0280 Z3.2000
N0290 G28.1 Z3.00
N0300 G92 Z0.0
N0310 G00 Z1.6000
N0320 G92 Z0.0
N0330 G00 Z3.2000
N0340 M03
N0350 G04 P0.75
N0360 G01 Z1.6000 F500.0
N0370 X70.1000 F1550.0
N0380 Y139.7000
N0390 X129.0000
N0400 G02 X130.1000 Y138.6000 I0.0000 J-1.1000
N0410 G01 Y77.7477
N0420 G02 X126.2871 Y65.6495 I-21.1000 J0.0000
N0430 G01 X85.8726 Y7.9017
N0440 G02 X68.5856 Y-1.1000 I-17.2871 J12.0983
N0450 G01 X20.0000
N0460 G02 X-1.1000 Y20.0000 I-0.0000 J21.1000
N0470 G01 Y121.0674
N0480 G02 X4.1425 Y134.9867 I21.1000 J-0.0000
N0490 G01 X54.6967 Y192.5801
N0500 G02 X68.9145 Y199.6969 I15.8575 J-13.9194
N0510 (Part: ESTET_CPMNC_04)
N0520 G03 X74.7978 Y206.5749 I-0.4973 J6.3806
N0530 (Operation: Offset externo, 0, T3: Perfuração 8-10-12mm)
N0540 M05
N0550 G04 P2
N0560 G00 Z10.0000
N0570 X130.4972 Y245.4972
N0580 Z3.2000
N0590 G28.1 Z3.00
N0600 G92 Z0.0
N0610 G00 Z1.6000
N0620 G92 Z0.0
N0630 G00 Z3.2000
N0640 M03
N0650 G04 P0.75
N0660 G01 Z1.6000 F500.0
N0670 X137.5683 Y252.5683 F1550.0
N0680 G03 I-8.7681 J-8.7681
N0690 X128.5173 I-4.5255 J-4.5255
N0700 M05
N0710 G04 P2
N0720 G00 Z10.0000
N0730 X190.7016 Y196.0675
N0740 Z3.2000
N0750 G28.1 Z3.00
N0760 G92 Z0.0
N0770 G00 Z1.6000
N0780 G92 Z0.0
N0790 G00 Z3.2000
N0800 M03
N0810 G04 P0.75
N0820 G01 Z1.6000 F500.0
N0830 X186.8748 Y205.3063 F1550.0
N0840 G02 X178.8001 Y203.7001 I-8.0746 J19.4939
N0850 G01 X77.7328
N0860 G02 X63.8134 Y208.9426 I0.0000 J21.1000
N0870 G01 X6.2200 Y259.4968
N0880 G02 X-0.8968 Y273.7147 I13.9194 J15.8575
N0890 G01 X-0.9001 Y273.8001
N0900 Y333.8001
N0910 G02 X0.1999 Y334.9001 I1.1000 J0.0000
N0920 G01 X121.0524
N0930 G02 X133.1506 Y331.0872 I0.0000 J-21.1000
N0940 G01 X190.8984 Y290.6728
N0950 G02 X199.9001 Y273.3857 I-12.0983 J-17.2871
N0960 G01 Y224.8001
N0970 G02 X186.8748 Y205.3063 I-21.1000 J0.0000
N0980 G03 X183.4111 Y196.9443 I2.4492 J-5.9128
N0990 M05
N1000 G04 P2
N1010 G00 Z10.0000
N1020 X0.0000 Y0.0000
N1030 M05 M30
