N0010 (Filename: ESTET_CHPRLEST.tap)
N0020 (Post processor: PROMA SERIES.scpost)
N0030 (Date: 20/10/2025)
N0040 G21 (Units: Metric)
N0050 G53 G90 G91.1 G40
N0060 F1
N0070 (Part: ESTET_CHPRLEST)
N0080 (Operation: Offset externo, 0, T3: Perfuração 8-10-12mm)
N0090 M06 T3 F1550  (Perfuração 8-10-12mm)
N0100 G00 Z10.0000
N0110 X93.8500 Y40.1456
N0120 Z3.2000
N0130 G28.1 Z3.00
N0140 G92 Z0.0
N0150 G00 Z1.6000
N0160 G92 Z0.0
N0170 G00 Z3.2000
N0180 M03
N0190 G04 P0.75
N0200 G01 Z1.6000 F500.0
N0210 X83.8500 F1550.0
N0220 Y30.0000
N0230 G03 X96.1500 I6.1500 J0.0000
N0240 G01 Y75.0000
N0250 G03 X83.8500 I-6.1500 J0.0000
N0260 G01 Y40.1456
N0270 G03 X90.2500 Y33.7456 I6.4000 J0.0000
N0280 M05
N0290 G04 P2
N0300 G00 Z10.0000
N0310 X86.1500 Y148.3846
N0320 Z3.2000
N0330 G28.1 Z3.00
N0340 G92 Z0.0
N0350 G00 Z1.6000
N0360 G92 Z0.0
N0370 G00 Z3.2000
N0380 M03
N0390 G04 P0.75
N0400 G01 Z1.6000 F500.0
N0410 X96.1500 F1550.0
N0420 Y170.0000
N0430 G03 X83.8500 I-6.1500 J0.0000
N0440 G01 Y125.0000
N0450 G03 X96.1500 I6.1500 J0.0000
N0460 G01 Y148.3846
N0470 G03 X89.7500 Y154.7846 I-6.4000 J0.0000
N0480 M05
N0490 G04 P2
N0500 G00 Z10.0000
N0510 X161.1500 Y142.3232
N0520 Z3.2000
N0530 G28.1 Z3.00
N0540 G92 Z0.0
N0550 G00 Z1.6000
N0560 G92 Z0.0
N0570 G00 Z3.2000
N0580 M03
N0590 G04 P0.75
N0600 G01 Z1.6000 F500.0
N0610 X171.1500 F1550.0
N0620 Y170.0000
N0630 G03 X158.8500 I-6.1500 J0.0000
N0640 G01 Y125.0000
N0650 G03 X171.1500 I6.1500 J0.0000
N0660 G01 Y142.3232
N0670 G03 X164.7500 Y148.7232 I-6.4000 J0.0000
N0680 M05
N0690 G04 P2
N0700 G00 Z10.0000
N0710 X161.1500 Y47.9388
N0720 Z3.2000
N0730 G28.1 Z3.00
N0740 G92 Z0.0
N0750 G00 Z1.6000
N0760 G92 Z0.0
N0770 G00 Z3.2000
N0780 M03
N0790 G04 P0.75
N0800 G01 Z1.6000 F500.0
N0810 X171.1500 F1550.0
N0820 Y75.0000
N0830 G03 X158.8500 I-6.1500 J0.0000
N0840 G01 Y30.0000
N0850 G03 X171.1500 I6.1500 J0.0000
N0860 G01 Y47.9388
N0870 G03 X164.7500 Y54.3388 I-6.4000 J0.0000
N0880 M05
N0890 G04 P2
N0900 G00 Z10.0000
N0910 X320.1500 Y41.4444
N0920 Z3.2000
N0930 G28.1 Z3.00
N0940 G92 Z0.0
N0950 G00 Z1.6000
N0960 G92 Z0.0
N0970 G00 Z3.2000
N0980 M03
N0990 G04 P0.75
N1000 G01 Z1.6000 F500.0
N1010 X330.1500 F1550.0
N1020 Y75.0000
N1030 G03 X317.8500 I-6.1500 J0.0000
N1040 G01 Y30.0000
N1050 G03 X330.1500 I6.1500 J0.0000
N1060 G01 Y41.4444
N1070 G03 X323.7500 Y47.8444 I-6.4000 J0.0000
N1080 M05
N1090 G04 P2
N1100 G00 Z10.0000
N1110 X320.1500 Y153.1471
N1120 Z3.2000
N1130 G28.1 Z3.00
N1140 G92 Z0.0
N1150 G00 Z1.6000
N1160 G92 Z0.0
N1170 G00 Z3.2000
N1180 M03
N1190 G04 P0.75
N1200 G01 Z1.6000 F500.0
N1210 X330.1500 F1550.0
N1220 Y170.0000
N1230 G03 X317.8500 I-6.1500 J0.0000
N1240 G01 Y125.0000
N1250 G03 X330.1500 I6.1500 J0.0000
N1260 G01 Y153.1471
N1270 G03 X323.7500 Y159.5471 I-6.4000 J0.0000
N1280 M05
N1290 G04 P2
N1300 G00 Z10.0000
N1310 X395.1500 Y154.8790
N1320 Z3.2000
N1330 G28.1 Z3.00
N1340 G92 Z0.0
N1350 G00 Z1.6000
N1360 G92 Z0.0
N1370 G00 Z3.2000
N1380 M03
N1390 G04 P0.75
N1400 G01 Z1.6000 F500.0
N1410 X405.1500 F1550.0
N1420 Y170.0000
N1430 G03 X392.8500 I-6.1500 J0.0000
N1440 G01 Y125.0000
N1450 G03 X405.1500 I6.1500 J0.0000
N1460 G01 Y154.8790
N1470 G03 X398.7500 Y161.2790 I-6.4000 J0.0000
N1480 M05
N1490 G04 P2
N1500 G00 Z10.0000
N1510 X395.1500 Y50.9695
N1520 Z3.2000
N1530 G28.1 Z3.00
N1540 G92 Z0.0
N1550 G00 Z1.6000
N1560 G92 Z0.0
N1570 G00 Z3.2000
N1580 M03
N1590 G04 P0.75
N1600 G01 Z1.6000 F500.0
N1610 X405.1500 F1550.0
N1620 Y75.0000
N1630 G03 X392.8500 I-6.1500 J0.0000
N1640 G01 Y30.0000
N1650 G03 X405.1500 I6.1500 J0.0000
N1660 G01 Y50.9695
N1670 G03 X398.7500 Y57.3695 I-6.4000 J0.0000
N1680 M05
N1690 G04 P2
N1700 G00 Z10.0000
N1710 X489.0000 Y-11.1000
N1720 Z3.2000
N1730 G28.1 Z3.00
N1740 G92 Z0.0
N1750 G00 Z1.6000
N1760 G92 Z0.0
N1770 G00 Z3.2000
N1780 M03
N1790 G04 P0.75
N1800 G01 Z1.6000 F500.0
N1810 Y-1.1000 F1550.0
N1820 X0.0000
N1830 G02 X-1.1000 Y0.0000 I0.0000 J1.1000
N1840 G01 Y200.0000
N1850 G02 X0.0000 Y201.1000 I1.1000 J0.0000
N1860 G01 X489.0000
N1870 G02 X490.1000 Y200.0000 I0.0000 J-1.1000
N1880 G01 Y0.0000
N1890 G03 X496.5000 Y-6.4000 I6.4000 J0.0000
N1900 M05
N1910 G04 P2
N1920 G00 Z10.0000
N1930 X0.0000 Y0.0000
N1940 M05 M30
