N0010 (Filename: ESTET_CRBR.tap)
N0020 (Post processor: PROMA SERIES.scpost)
N0030 (Date: 20/10/2025)
N0040 G21 (Units: Metric)
N0050 G53 G90 G91.1 G40
N0060 F1
N0070 (Part: ESTET_CPMNC1)
N0080 (Operation: Offset externo, 0, T3: Perfuração 8-10-12mm)
N0090 M06 T3 F1550  (Perfuração 8-10-12mm)
N0100 G00 Z10.0000
N0110 X261.3999 Y78.0349
N0120 Z3.2000
N0130 G28.1 Z3.00
N0140 G92 Z0.0
N0150 G00 Z1.6000
N0160 G92 Z0.0
N0170 G00 Z3.2000
N0180 M03
N0190 G04 P0.75
N0200 G01 Z1.6000 F500.0
N0210 X268.4709 Y70.9638 F1550.0
N0220 G03 I-23.9709 J23.9709
N0230 Y80.0148 I-4.5255 J4.5255
N0240 M05
N0250 G04 P2
N0260 G00 Z10.0000
N0270 X405.8999 Y78.0349
N0280 Z3.2000
N0290 G28.1 Z3.00
N0300 G92 Z0.0
N0310 G00 Z1.6000
N0320 G92 Z0.0
N0330 G00 Z3.2000
N0340 M03
N0350 G04 P0.75
N0360 G01 Z1.6000 F500.0
N0370 X412.9709 Y70.9638 F1550.0
N0380 G03 I-23.9709 J23.9709
N0390 Y80.0148 I-4.5255 J4.5255
N0400 M05
N0410 G04 P2
N0420 G00 Z10.0000
N0430 X83.1001 Y78.0349
N0440 Z3.2000
N0450 G28.1 Z3.00
N0460 G92 Z0.0
N0470 G00 Z1.6000
N0480 G92 Z0.0
N0490 G00 Z3.2000
N0500 M03
N0510 G04 P0.75
N0520 G01 Z1.6000 F500.0
N0530 X76.0291 Y70.9638 F1550.0
N0540 G03 I23.9709 J23.9709
N0550 X85.0800 I4.5255 J4.5255
N0560 M05
N0570 G04 P2
N0580 G00 Z10.0000
N0590 X-11.1000 Y0.0000
N0600 Z3.2000
N0610 G28.1 Z3.00
N0620 G92 Z0.0
N0630 G00 Z1.6000
N0640 G92 Z0.0
N0650 G00 Z3.2000
N0660 M03
N0670 G04 P0.75
N0680 G01 Z1.6000 F500.0
N0690 X-1.1000 F1550.0
N0700 Y200.0000
N0710 G02 X0.0000 Y201.1000 I1.1000 J0.0000
N0720 G01 X378.1711
N0730 G03 X410.0416 Y217.6956 I0.0000 J38.9000
N0740 G01 X490.5255 Y332.6983
N0750 G02 X507.8126 Y341.7000 I17.2871 J-12.0983
N0760 G01 X548.0000
N0770 G02 X569.1000 Y320.6000 I0.0000 J-21.1000
N0780 G01 Y207.5326
N0790 G02 X563.8575 Y193.6133 I-21.1000 J0.0000
N0800 G01 X499.7650 Y120.5965
N0810 G03 X490.1000 Y94.9347 I29.2350 J-25.6618
N0820 G01 Y0.0000
N0830 G02 X489.0000 Y-1.1000 I-1.1000 J0.0000
N0840 G01 X0.0000
N0850 (Part: ESTET_CRBR)
N0860 G03 X-6.4000 Y-7.5000 I0.0000 J-6.4000
N0870 (Operation: Offset externo, 0, T3: Perfuração 8-10-12mm)
N0880 M05
N0890 G04 P2
N0900 G00 Z10.0000
N0910 X-11.1000 Y218.8625
N0920 Z3.2000
N0930 G28.1 Z3.00
N0940 G92 Z0.0
N0950 G00 Z1.6000
N0960 G92 Z0.0
N0970 G00 Z3.2000
N0980 M03
N0990 G04 P0.75
N1000 G01 Z1.6000 F500.0
N1010 X-1.1000 F1550.0
N1020 Y306.0000
N1030 G02 X0.0000 Y307.1000 I1.1000 J0.0000
N1040 G03 Y338.9000 I0.0000 J15.9000
N1050 G02 X-1.1000 Y340.0000 I0.0000 J1.1000
N1060 G01 Y441.0000
N1070 G02 X0.0000 Y442.1000 I1.1000 J0.0000
N1080 G01 X369.0000
N1090 G02 X370.1000 Y441.0000 I0.0000 J-1.1000
N1100 G01 Y340.0000
N1110 G02 X369.0000 Y338.9000 I-1.1000 J0.0000
N1120 G03 Y307.1000 I0.0000 J-15.9000
N1130 G02 X370.1000 Y306.0000 I0.0000 J-1.1000
N1140 G01 Y205.0000
N1150 G02 X369.0000 Y203.9000 I-1.1000 J0.0000
N1160 G01 X0.0000
N1170 G02 X-1.1000 Y205.0000 I0.0000 J1.1000
N1180 G01 Y218.8625
N1190 G03 X-7.5000 Y225.2625 I-6.4000 J0.0000
N1200 M05
N1210 G04 P2
N1220 G00 Z10.0000
N1230 X0.0000 Y0.0000
N1240 M05 M30
