N0010 (Filename: MTMR_CHPAJ.tap)
N0020 (Post processor: PROMA SERIES.scpost)
N0030 (Date: 17/10/2025)
N0040 G21 (Units: Metric)
N0050 G53 G90 G91.1 G40
N0060 F1
N0070 (Part: MTMR_CHPAJ)
N0080 (Operation: Offset externo, 0, T3: Perfuração 8-10-12mm)
N0090 M06 T3 F1550  (Perfuração 8-10-12mm)
N0100 G00 Z10.0000
N0110 X22.0167 Y28.9155
N0120 Z3.2000
N0130 G28.1 Z3.00
N0140 G92 Z0.0
N0150 G00 Z1.6000
N0160 G92 Z0.0
N0170 G00 Z3.2000
N0180 M03
N0190 G04 P0.75
N0200 G01 Z1.6000 F500.0
N0210 X12.1340 Y30.4429 F1550.0
N0220 G03 X15.0000 Y27.1000 I2.8660 J-0.4429
N0230 G01 X85.0000
N0240 G03 Y32.9000 I0.0000 J2.9000
N0250 G01 X15.0000
N0260 G03 X12.1340 Y30.4429 I0.0000 J-2.9000
N0270 X21.0788 Y29.0605 I5.1636 J3.7812
N0280 M05
N0290 G04 P2
N0300 G00 Z10.0000
N0310 X172.0167 Y28.9155
N0320 Z3.2000
N0330 G28.1 Z3.00
N0340 G92 Z0.0
N0350 G00 Z1.6000
N0360 G92 Z0.0
N0370 G00 Z3.2000
N0380 M03
N0390 G04 P0.75
N0400 G01 Z1.6000 F500.0
N0410 X162.1340 Y30.4429 F1550.0
N0420 G03 X165.0000 Y27.1000 I2.8660 J-0.4429
N0430 G01 X235.0000
N0440 G03 Y32.9000 I0.0000 J2.9000
N0450 G01 X165.0000
N0460 G03 X162.1340 Y30.4429 I0.0000 J-2.9000
N0470 X171.0788 Y29.0605 I5.1636 J3.7812
N0480 M05
N0490 G04 P2
N0500 G00 Z10.0000
N0510 X250.0000 Y-11.1000
N0520 Z3.2000
N0530 G28.1 Z3.00
N0540 G92 Z0.0
N0550 G00 Z1.6000
N0560 G92 Z0.0
N0570 G00 Z3.2000
N0580 M03
N0590 G04 P0.75
N0600 G01 Z1.6000 F500.0
N0610 Y-1.1000 F1550.0
N0620 X0.0000
N0630 G02 X-1.1000 Y0.0000 I0.0000 J1.1000
N0640 G01 Y50.0000
N0650 G02 X10.0000 Y61.1000 I11.1000 J0.0000
N0660 G01 X240.0000
N0670 G02 X251.1000 Y50.0000 I0.0000 J-11.1000
N0680 G01 Y0.0000
N0690 G03 X257.5000 Y-6.4000 I6.4000 J0.0000
N0700 M05
N0710 G04 P2
N0720 G00 Z10.0000
N0730 X0.0000 Y0.0000
N0740 M05 M30
