N0010 (Filename: p1 chapa 9.5 4p.tap)
N0020 (Post processor: PROMA SERIES.scpost)
N0030 (Date: 11/02/2026)
N0040 G21 (Units: Metric)
N0050 G53 G90 G91.1 G40
N0060 F1
N0070 (Part: p1)
N0080 (Operation: Offset externo, 0, T3: Perfuração 8-10-12mm)
N0090 M06 T3 F1500  (Perfuração 8-10-12mm)
N0100 G00 Z10.0000
N0110 X907.1000 Y95.0554
N0120 Z3.2000
N0130 G28.1 Z3.00
N0140 G92 Z0.0
N0150 G00 Z1.6000
N0160 G92 Z0.0
N0170 G00 Z3.2000
N0180 M03
N0190 G04 P0.75
N0200 G01 Z1.6000 F500.0
N0210 X901.1000 F1500.0
N0220 Y0.0000
N0230 G02 X900.0000 Y-1.1000 I-1.1000 J0.0000
N0240 G01 X0.0000
N0250 G02 X-1.1000 Y0.0000 I0.0000 J1.1000
N0260 G01 Y190.0000
N0270 G02 X0.0000 Y191.1000 I1.1000 J0.0000
N0280 G01 X900.0000
N0290 G02 X901.1000 Y190.0000 I0.0000 J-1.1000
N0300 G01 Y95.0554
N0310 (Part: Copiar de p1)
N0320 G03 X904.9400 Y91.2154 I3.8400 J-0.0000
N0330 (Operation: Offset externo, 0, T3: Perfuração 8-10-12mm)
N0340 M05
N0350 G04 P2
N0360 G00 Z10.0000
N0370 X761.6773 Y397.1000
N0380 Z3.2000
N0390 G28.1 Z3.00
N0400 G92 Z0.0
N0410 G00 Z1.6000
N0420 G92 Z0.0
N0430 G00 Z3.2000
N0440 M03
N0450 G04 P0.75
N0460 G01 Z1.6000 F500.0
N0470 Y391.1000 F1500.0
N0480 X900.0000
N0490 G02 X901.1000 Y390.0000 I0.0000 J-1.1000
N0500 G01 Y200.0000
N0510 G02 X900.0000 Y198.9000 I-1.1000 J0.0000
N0520 G01 X0.0000
N0530 G02 X-1.1000 Y200.0000 I0.0000 J1.1000
N0540 G01 Y390.0000
N0550 G02 X0.0000 Y391.1000 I1.1000 J0.0000
N0560 G01 X761.6773
N0570 G03 X765.5173 Y394.9400 I0.0000 J3.8400
N0580 M05
N0590 G04 P2
N0600 G00 Z10.0000
N0610 X0.0000 Y0.0000
N0620 M05 M30
