N0010 (Filename: p7  chapa 6,3 8p.tap)
N0020 (Post processor: PROMA SERIES.scpost)
N0030 (Date: 11/02/2026)
N0040 G21 (Units: Metric)
N0050 G53 G90 G91.1 G40
N0060 F1
N0070 (Part: p7)
N0080 (Operation: Offset externo, 0, T3: Perfuração 8-10-12mm)
N0090 M06 T3 F1500  (Perfuração 8-10-12mm)
N0100 G00 Z10.0000
N0110 X19.2683 Y197.1000
N0120 Z3.2000
N0130 G28.1 Z3.00
N0140 G92 Z0.0
N0150 G00 Z1.6000
N0160 G92 Z0.0
N0170 G00 Z3.2000
N0180 M03
N0190 G04 P0.75
N0200 G01 Z1.6000 F500.0
N0210 Y191.1000 F1500.0
N0220 X40.0000
N0230 G02 X41.1000 Y190.0000 I0.0000 J-1.1000
N0240 G01 Y0.0000
N0250 G02 X40.0000 Y-1.1000 I-1.1000 J0.0000
N0260 G01 X0.0000
N0270 G02 X-1.1000 Y0.0000 I0.0000 J1.1000
N0280 G01 Y190.0000
N0290 G02 X0.0000 Y191.1000 I1.1000 J0.0000
N0300 G01 X19.2683
N0310 (Part: Copiar de p7)
N0320 G03 X23.1083 Y194.9400 I0.0000 J3.8400
N0330 (Operation: Offset externo, 0, T3: Perfuração 8-10-12mm)
N0340 M05
N0350 G04 P2
N0360 G00 Z10.0000
N0370 X17.3923 Y397.1000
N0380 Z3.2000
N0390 G28.1 Z3.00
N0400 G92 Z0.0
N0410 G00 Z1.6000
N0420 G92 Z0.0
N0430 G00 Z3.2000
N0440 M03
N0450 G04 P0.75
N0460 G01 Z1.6000 F500.0
N0470 Y391.1000 F1500.0
N0480 X40.0000
N0490 G02 X41.1000 Y390.0000 I0.0000 J-1.1000
N0500 G01 Y200.0000
N0510 G02 X40.0000 Y198.9000 I-1.1000 J0.0000
N0520 G01 X0.0000
N0530 G02 X-1.1000 Y200.0000 I0.0000 J1.1000
N0540 G01 Y390.0000
N0550 G02 X-0.0000 Y391.1000 I1.1000 J0.0000
N0560 G01 X17.3923
N0570 (Part: Copiar de Copiar de p7)
N0580 G03 X21.2323 Y394.9400 I0.0000 J3.8400
N0590 (Operation: Offset externo, 0, T3: Perfuração 8-10-12mm)
N0600 M05
N0610 G04 P2
N0620 G00 Z10.0000
N0630 X68.6699 Y397.1000
N0640 Z3.2000
N0650 G28.1 Z3.00
N0660 G92 Z0.0
N0670 G00 Z1.6000
N0680 G92 Z0.0
N0690 G00 Z3.2000
N0700 M03
N0710 G04 P0.75
N0720 G01 Z1.6000 F500.0
N0730 Y391.1000 F1500.0
N0740 X90.0000
N0750 G02 X91.1000 Y390.0000 I0.0000 J-1.1000
N0760 G01 Y200.0000
N0770 G02 X90.0000 Y198.9000 I-1.1000 J0.0000
N0780 G01 X50.0000
N0790 G02 X48.9000 Y200.0000 I0.0000 J1.1000
N0800 G01 Y390.0000
N0810 G02 X50.0000 Y391.1000 I1.1000 J0.0000
N0820 G01 X68.6699
N0830 (Part: Copiar de Copiar de p7[2])
N0840 G03 X72.5099 Y394.9400 I0.0000 J3.8400
N0850 (Operation: Offset externo, 0, T3: Perfuração 8-10-12mm)
N0860 M05
N0870 G04 P2
N0880 G00 Z10.0000
N0890 X116.1955 Y397.1000
N0900 Z3.2000
N0910 G28.1 Z3.00
N0920 G92 Z0.0
N0930 G00 Z1.6000
N0940 G92 Z0.0
N0950 G00 Z3.2000
N0960 M03
N0970 G04 P0.75
N0980 G01 Z1.6000 F500.0
N0990 Y391.1000 F1500.0
N1000 X140.0000
N1010 G02 X141.1000 Y390.0000 I0.0000 J-1.1000
N1020 G01 Y200.0000
N1030 G02 X140.0000 Y198.9000 I-1.1000 J0.0000
N1040 G01 X100.0000
N1050 G02 X98.9000 Y200.0000 I0.0000 J1.1000
N1060 G01 Y390.0000
N1070 G02 X100.0000 Y391.1000 I1.1000 J0.0000
N1080 G01 X116.1955
N1090 (Part: Copiar de Copiar de Copiar de p7)
N1100 G03 X120.0355 Y394.9400 I0.0000 J3.8400
N1110 (Operation: Offset externo, 0, T3: Perfuração 8-10-12mm)
N1120 M05
N1130 G04 P2
N1140 G00 Z10.0000
N1150 X171.8505 Y397.1000
N1160 Z3.2000
N1170 G28.1 Z3.00
N1180 G92 Z0.0
N1190 G00 Z1.6000
N1200 G92 Z0.0
N1210 G00 Z3.2000
N1220 M03
N1230 G04 P0.75
N1240 G01 Z1.6000 F500.0
N1250 Y391.1000 F1500.0
N1260 X190.0000
N1270 G02 X191.1000 Y390.0000 I0.0000 J-1.1000
N1280 G01 Y200.0000
N1290 G02 X190.0000 Y198.9000 I-1.1000 J0.0000
N1300 G01 X150.0000
N1310 G02 X148.9000 Y200.0000 I0.0000 J1.1000
N1320 G01 Y390.0000
N1330 G02 X150.0000 Y391.1000 I1.1000 J0.0000
N1340 G01 X171.8505
N1350 (Part: Copiar de Copiar de p7[1])
N1360 G03 X175.6905 Y394.9400 I0.0000 J3.8400
N1370 (Operation: Offset externo, 0, T3: Perfuração 8-10-12mm)
N1380 M05
N1390 G04 P2
N1400 G00 Z10.0000
N1410 X168.0985 Y197.1000
N1420 Z3.2000
N1430 G28.1 Z3.00
N1440 G92 Z0.0
N1450 G00 Z1.6000
N1460 G92 Z0.0
N1470 G00 Z3.2000
N1480 M03
N1490 G04 P0.75
N1500 G01 Z1.6000 F500.0
N1510 Y191.1000 F1500.0
N1520 X190.0000
N1530 G02 X191.1000 Y190.0000 I0.0000 J-1.1000
N1540 G01 Y0.0000
N1550 G02 X190.0000 Y-1.1000 I-1.1000 J0.0000
N1560 G01 X150.0000
N1570 G02 X148.9000 Y0.0000 I0.0000 J1.1000
N1580 G01 Y190.0000
N1590 G02 X150.0000 Y191.1000 I1.1000 J0.0000
N1600 G01 X168.0985
N1610 (Part: Copiar de p7[2])
N1620 G03 X171.9385 Y194.9400 I0.0000 J3.8400
N1630 (Operation: Offset externo, 0, T3: Perfuração 8-10-12mm)
N1640 M05
N1650 G04 P2
N1660 G00 Z10.0000
N1670 X119.9475 Y197.1000
N1680 Z3.2000
N1690 G28.1 Z3.00
N1700 G92 Z0.0
N1710 G00 Z1.6000
N1720 G92 Z0.0
N1730 G00 Z3.2000
N1740 M03
N1750 G04 P0.75
N1760 G01 Z1.6000 F500.0
N1770 Y191.1000 F1500.0
N1780 X140.0000
N1790 G02 X141.1000 Y190.0000 I0.0000 J-1.1000
N1800 G01 Y0.0000
N1810 G02 X140.0000 Y-1.1000 I-1.1000 J0.0000
N1820 G01 X100.0000
N1830 G02 X98.9000 Y0.0000 I0.0000 J1.1000
N1840 G01 Y190.0000
N1850 G02 X100.0000 Y191.1000 I1.1000 J0.0000
N1860 G01 X119.9475
N1870 (Part: Copiar de p7[1])
N1880 G03 X123.7875 Y194.9400 I0.0000 J3.8400
N1890 (Operation: Offset externo, 0, T3: Perfuração 8-10-12mm)
N1900 M05
N1910 G04 P2
N1920 G00 Z10.0000
N1930 X68.0445 Y197.1000
N1940 Z3.2000
N1950 G28.1 Z3.00
N1960 G92 Z0.0
N1970 G00 Z1.6000
N1980 G92 Z0.0
N1990 G00 Z3.2000
N2000 M03
N2010 G04 P0.75
N2020 G01 Z1.6000 F500.0
N2030 Y191.1000 F1500.0
N2040 X90.0000
N2050 G02 X91.1000 Y190.0000 I0.0000 J-1.1000
N2060 G01 Y0.0000
N2070 G02 X90.0000 Y-1.1000 I-1.1000 J0.0000
N2080 G01 X50.0000
N2090 G02 X48.9000 Y0.0000 I0.0000 J1.1000
N2100 G01 Y190.0000
N2110 G02 X50.0000 Y191.1000 I1.1000 J0.0000
N2120 G01 X68.0445
N2130 G03 X71.8845 Y194.9400 I0.0000 J3.8400
N2140 M05
N2150 G04 P2
N2160 G00 Z10.0000
N2170 X0.0000 Y0.0000
N2180 M05 M30
