N0010 (Filename: p8 2p chapa de 15mm.tap)
N0020 (Post processor: PROMA SERIES.scpost)
N0030 (Date: 18/02/2026)
N0040 G21 (Units: Metric)
N0050 G53 G90 G91.1 G40
N0060 F1
N0070 (Part: p8)
N0080 (Operation: Offset externo, 0, T3: Perfuração 8-10-12mm)
N0090 M06 T3 F1500  (Perfuração 8-10-12mm)
N0100 G00 Z10.0000
N0110 X29.9439 Y87.1000
N0120 Z3.2000
N0130 G28.1 Z3.00
N0140 G92 Z0.0
N0150 G00 Z1.6000
N0160 G92 Z0.0
N0170 G00 Z3.2000
N0180 M03
N0190 G04 P0.75
N0200 G01 Z1.6000 F500.0
N0210 Y81.1000 F1500.0
N0220 X65.0000
N0230 G02 X66.0986 Y79.9451 I0.0000 J-1.1000
N0240 G01 X63.6000 Y29.9723
N0250 G02 X1.4000 I-31.1000 J0.0277
N0260 G01 X-1.0986 Y79.9451
N0270 G02 X0.0000 Y81.1000 I1.0986 J0.0549
N0280 G01 X29.9439
N0290 G03 X33.7839 Y84.9400 I0.0000 J3.8400
N0300 M05
N0310 G04 P2
N0320 G00 Z10.0000
N0330 X0.0000 Y0.0000
N0340 M05 M30
