N0010 (Filename: SUPCOG_AJTB.tap)
N0020 (Post processor: PROMA SERIES.scpost)
N0030 (Date: 17/10/2025)
N0040 G21 (Units: Metric)
N0050 G53 G90 G91.1 G40
N0060 F1
N0070 (Part: SUPCOG_AJTB)
N0080 (Operation: Offset externo, 0, T3: Perfuração 8-10-12mm)
N0090 M06 T3 F1550  (Perfuração 8-10-12mm)
N0100 G00 Z10.0000
N0110 X58.7778 Y13.7326
N0120 Z3.2000
N0130 G28.1 Z3.00
N0140 G92 Z0.0
N0150 G00 Z1.6000
N0160 G92 Z0.0
N0170 G00 Z3.2000
N0180 M03
N0190 G04 P0.75
N0200 G01 Z1.6000 F500.0
N0210 X68.5766 Y15.7285 F1550.0
N0220 G03 X65.0000 Y18.6500 I-3.5766 J-0.7285
N0230 G01 X15.0000
N0240 G03 Y11.3500 I0.0000 J-3.6500
N0250 G01 X65.0000
N0260 G03 X68.5766 Y15.7285 I0.0000 J3.6500
N0270 X59.5257 Y15.6870 I-4.5047 J-4.5462
N0280 M05
N0290 G04 P2
N0300 G00 Z10.0000
N0310 X21.2222 Y106.2674
N0320 Z3.2000
N0330 G28.1 Z3.00
N0340 G92 Z0.0
N0350 G00 Z1.6000
N0360 G92 Z0.0
N0370 G00 Z3.2000
N0380 M03
N0390 G04 P0.75
N0400 G01 Z1.6000 F500.0
N0410 X11.4234 Y104.2715 F1550.0
N0420 G03 X15.0000 Y101.3500 I3.5766 J0.7285
N0430 G01 X65.0000
N0440 G03 Y108.6500 I0.0000 J3.6500
N0450 G01 X15.0000
N0460 G03 X11.4234 Y104.2715 I0.0000 J-3.6500
N0470 X20.4743 Y104.3130 I4.5047 J4.5462
N0480 M05
N0490 G04 P2
N0500 G00 Z10.0000
N0510 X40.0000 Y131.1000
N0520 Z3.2000
N0530 G28.1 Z3.00
N0540 G92 Z0.0
N0550 G00 Z1.6000
N0560 G92 Z0.0
N0570 G00 Z3.2000
N0580 M03
N0590 G04 P0.75
N0600 G01 Z1.6000 F500.0
N0610 Y121.1000 F1550.0
N0620 X75.0000
N0630 G02 X81.1000 Y115.0000 I0.0000 J-6.1000
N0640 G01 Y5.0000
N0650 G02 X75.0000 Y-1.1000 I-6.1000 J0.0000
N0660 G01 X5.0000
N0670 G02 X-1.1000 Y5.0000 I0.0000 J6.1000
N0680 G01 Y115.0000
N0690 G02 X5.0000 Y121.1000 I6.1000 J0.0000
N0700 G01 X40.0000
N0710 G03 X46.4000 Y127.5000 I0.0000 J6.4000
N0720 M05
N0730 G04 P2
N0740 G00 Z10.0000
N0750 X0.0000 Y0.0000
N0760 M05 M30
