N0010 (Filename: suporte p4 cabeçote.tap)
N0020 (Post processor: PROMA SERIES.scpost)
N0030 (Date: 11/02/2026)
N0040 G21 (Units: Metric)
N0050 G53 G90 G91.1 G40
N0060 F1
N0070 (Part: suporte p4 cabeçote)
N0080 (Operation: Offset externo, 0, T3: Perfuração 8-10-12mm)
N0090 M06 T3 F1500  (Perfuração 8-10-12mm)
N0100 G00 Z10.0000
N0110 X69.6739 Y62.0200
N0120 Z3.2000
N0130 G28.1 Z3.00
N0140 G92 Z0.0
N0150 G00 Z1.6000
N0160 G92 Z0.0
N0170 G00 Z3.2000
N0180 M03
N0190 G04 P0.75
N0200 G01 Z1.6000 F500.0
N0210 Y56.0200 F1500.0
N0220 X366.9337
N0230 G02 X368.0208 Y54.7524 I0.0000 J-1.1000
N0240 G01 X359.5539 Y-0.1676
N0250 G02 X358.4667 Y-1.1000 I-1.0872 J0.1676
N0260 G01 X8.4667
N0270 G02 X7.3796 Y-0.1676 I0.0000 J1.1000
N0280 G01 X-1.0872 Y54.7524
N0290 G02 X0.0000 Y56.0200 I1.0872 J0.1676
N0300 G01 X69.6739
N0310 G03 X73.5139 Y59.8600 I0.0000 J3.8400
N0320 M05
N0330 G04 P2
N0340 G00 Z10.0000
N0350 X0.0000 Y0.0000
N0360 M05 M30
