N0010 (Filename: suporte p2 cabeçote.tap)
N0020 (Post processor: PROMA SERIES.scpost)
N0030 (Date: 11/02/2026)
N0040 G21 (Units: Metric)
N0050 G53 G90 G91.1 G40
N0060 F1
N0070 (Part: suporte p2 cabeçote)
N0080 (Operation: Offset externo, 0, T3: Perfuração 8-10-12mm)
N0090 M06 T3 F1500  (Perfuração 8-10-12mm)
N0100 G00 Z10.0000
N0110 X117.3206 Y122.5176
N0120 Z3.2000
N0130 G28.1 Z3.00
N0140 G92 Z0.0
N0150 G00 Z1.6000
N0160 G92 Z0.0
N0170 G00 Z3.2000
N0180 M03
N0190 G04 P0.75
N0200 G01 Z1.6000 F500.0
N0210 Y116.5176 F1500.0
N0220 X149.0000
N0230 G02 X150.1000 Y115.4176 I0.0000 J-1.1000
N0240 G01 Y0.0000
N0250 G02 X149.0000 Y-1.1000 I-1.1000 J0.0000
N0260 G01 X0.0000
N0270 G02 X-1.1000 Y0.0000 I0.0000 J1.1000
N0280 G01 Y55.4109
N0290 G02 X-0.1100 Y56.5053 I1.1000 J0.0000
N0300 G03 X25.9000 Y85.2605 I-2.8900 J28.7551
N0310 G01 Y111.2964
N0320 G02 X36.9934 Y122.5176 I11.1599 J0.0613
N0330 G01 X89.5000
N0340 G02 X90.6000 Y121.4176 I0.0000 J-1.1000
N0350 G01 Y116.5176
N0360 X117.3206
N0370 (Part: Copiar de suporte p2 cabeçote)
N0380 G03 X121.1606 Y120.3576 I0.0000 J3.8400
N0390 (Operation: Offset externo, 0, T3: Perfuração 8-10-12mm)
N0400 M05
N0410 G04 P2
N0420 G00 Z10.0000
N0430 X117.8001 Y252.5176
N0440 Z3.2000
N0450 G28.1 Z3.00
N0460 G92 Z0.0
N0470 G00 Z1.6000
N0480 G92 Z0.0
N0490 G00 Z3.2000
N0500 M03
N0510 G04 P0.75
N0520 G01 Z1.6000 F500.0
N0530 Y246.5176 F1500.0
N0540 X149.0000
N0550 G02 X150.1000 Y245.4176 I0.0000 J-1.1000
N0560 G01 Y130.0000
N0570 G02 X149.0000 Y128.9000 I-1.1000 J0.0000
N0580 G01 X0.0000
N0590 G02 X-1.1000 Y130.0000 I0.0000 J1.1000
N0600 G01 Y185.4109
N0610 G02 X-0.1100 Y186.5053 I1.1000 J0.0000
N0620 G03 X25.9000 Y215.2605 I-2.8900 J28.7551
N0630 G01 Y241.2964
N0640 G02 X36.9934 Y252.5176 I11.1599 J0.0613
N0650 G01 X89.5000
N0660 G02 X90.6000 Y251.4176 I0.0000 J-1.1000
N0670 G01 Y246.5176
N0680 X117.8001
N0690 G03 X121.6401 Y250.3576 I0.0000 J3.8400
N0700 M05
N0710 G04 P2
N0720 G00 Z10.0000
N0730 X0.0000 Y0.0000
N0740 M05 M30
