N0010 (Filename: suporte motor p3.tap)
N0020 (Post processor: PROMA SERIES.scpost)
N0030 (Date: 11/02/2026)
N0040 G21 (Units: Metric)
N0050 G53 G90 G91.1 G40
N0060 F1
N0070 (Part: suporte motor p3)
N0080 (Operation: Offset externo, 0, T3: Perfuração 8-10-12mm)
N0090 M06 T3 F1500  (Perfuração 8-10-12mm)
N0100 G00 Z10.0000
N0110 X76.1745 Y92.2559
N0120 Z3.2000
N0130 G28.1 Z3.00
N0140 G92 Z0.0
N0150 G00 Z1.6000
N0160 G92 Z0.0
N0170 G00 Z3.2000
N0180 M03
N0190 G04 P0.75
N0200 G01 Z1.6000 F500.0
N0210 X72.2047 Y87.7569 F1500.0
N0220 X170.7278 Y0.8248
N0230 G02 X170.0000 Y-1.1000 I-0.7278 J-0.8248
N0240 G01 X0.0000
N0250 G02 X-1.1000 Y0.0000 I0.0000 J1.1000
N0260 G01 Y150.0000
N0270 G02 X0.7278 Y150.8248 I1.1000 J0.0000
N0280 G01 X72.2047 Y87.7569
N0290 G03 X77.6248 Y88.0957 I2.5406 J2.8794
N0300 M05
N0310 G04 P2
N0320 G00 Z10.0000
N0330 X0.0000 Y0.0000
N0340 M05 M30
