N0010 (Filename: suporte motor p3.tap)
N0020 (Post processor: PROMA SERIES.scpost)
N0030 (Date: 11/02/2026)
N0040 G21 (Units: Metric)
N0050 G53 G90 G91.1 G40
N0060 F1
N0070 (Part: suporte motor p3)
N0080 (Operation: Offset externo, 0, T3: Perfuração 8-10-12mm)
N0090 M06 T3 F1500  (Perfuração 8-10-12mm)
N0100 G00 Z10.0000
N0110 X81.3921 Y88.4868
N0120 Z3.2000
N0130 G28.1 Z3.00
N0140 G92 Z0.0
N0150 G00 Z1.6000
N0160 G92 Z0.0
N0170 G00 Z3.2000
N0180 M03
N0190 G04 P0.75
N0200 G01 Z1.6000 F500.0
N0210 X76.8931 Y84.5171 F1500.0
N0220 X136.1635 Y17.3440
N0230 G02 X127.8403 Y-1.1000 I-8.3232 J-7.3440
N0240 G01 X0.0000
N0250 G02 X-1.1000 Y0.0000 I0.0000 J1.1000
N0260 G01 Y143.5523
N0270 G02 X18.3232 Y150.8963 I11.1000 J0.0000
N0280 G01 X76.8931 Y84.5171
N0290 G03 X82.3131 Y84.1783 I2.8794 J2.5406
N0300 M05
N0310 G04 P2
N0320 G00 Z10.0000
N0330 X0.0000 Y0.0000
N0340 M05 M30
