N0010 (Filename: suporte motor p1.tap)
N0020 (Post processor: PROMA SERIES.scpost)
N0030 (Date: 11/02/2026)
N0040 G21 (Units: Metric)
N0050 G53 G90 G91.1 G40
N0060 F1
N0070 (Part: suporte motor p1)
N0080 (Operation: Offset externo, 0, T3: Perfuração 8-10-12mm)
N0090 M06 T3 F1500  (Perfuração 8-10-12mm)
N0100 G00 Z10.0000
N0110 X48.4000 Y75.8695
N0120 Z3.2000
N0130 G28.1 Z3.00
N0140 G92 Z0.0
N0150 G00 Z1.6000
N0160 G92 Z0.0
N0170 G00 Z3.2000
N0180 M03
N0190 G04 P0.75
N0200 G01 Z1.6000 F500.0
N0210 X54.4000 F800.0
N0220 Y119.5000
N0230 G03 X45.6000 I-4.4000 J-0.0000
N0240 G01 Y30.5000
N0250 G03 X54.4000 I4.4000 J0.0000
N0260 G01 Y75.8695
N0270 G03 X50.5600 Y79.7095 I-3.8400 J0.0000
N0280 M05
N0290 G04 P2
N0300 G00 Z10.0000
N0310 X168.4000 Y78.1238
N0320 Z3.2000
N0330 G28.1 Z3.00
N0340 G92 Z0.0
N0350 G00 Z1.6000
N0360 G92 Z0.0
N0370 G00 Z3.2000
N0380 M03
N0390 G04 P0.75
N0400 G01 Z1.6000 F500.0
N0410 X174.4000 F800.0
N0420 Y119.5000
N0430 G03 X165.6000 I-4.4000 J0.0000
N0440 G01 Y30.5000
N0450 G03 X174.4000 I4.4000 J0.0000
N0460 G01 Y78.1238
N0470 G03 X170.5600 Y81.9638 I-3.8400 J-0.0000
N0480 M05
N0490 G04 P2
N0500 G00 Z10.0000
N0510 X107.1411 Y157.1000
N0520 Z3.2000
N0530 G28.1 Z3.00
N0540 G92 Z0.0
N0550 G00 Z1.6000
N0560 G92 Z0.0
N0570 G00 Z3.2000
N0580 M03
N0590 G04 P0.75
N0600 G01 Z1.6000 F500.0
N0610 Y151.1000 F1500.0
N0620 X220.0000
N0630 G02 X221.1000 Y150.0000 I0.0000 J-1.1000
N0640 G01 Y0.0000
N0650 G02 X220.0000 Y-1.1000 I-1.1000 J0.0000
N0660 G01 X0.0000
N0670 G02 X-1.1000 Y0.0000 I0.0000 J1.1000
N0680 G01 Y150.0000
N0690 G02 X0.0000 Y151.1000 I1.1000 J0.0000
N0700 G01 X107.1411
N0710 G03 X110.9811 Y154.9400 I0.0000 J3.8400
N0720 M05
N0730 G04 P2
N0740 G00 Z10.0000
N0750 X0.0000 Y0.0000
N0760 M05 M30
