N0010 (Filename: suporte p1 roletes.tap)
N0020 (Post processor: PROMA SERIES.scpost)
N0030 (Date: 11/02/2026)
N0040 G21 (Units: Metric)
N0050 G53 G90 G91.1 G40
N0060 F1
N0070 (Part: suporte p1 roletes)
N0080 (Operation: Offset externo, 0, T3: Perfuração 8-10-12mm)
N0090 M06 T3 F1500  (Perfuração 8-10-12mm)
N0100 G00 Z10.0000
N0110 X120.6364 Y49.3636
N0120 Z3.2000
N0130 G28.1 Z3.00
N0140 G92 Z0.0
N0150 G00 Z1.6000
N0160 G92 Z0.0
N0170 G00 Z3.2000
N0180 M03
N0190 G04 P0.75
N0200 G01 Z1.6000 F500.0
N0210 X124.8790 Y45.1210 F1500.0
N0220 G03 I-4.8790 J4.8790
N0230 Y50.5515 I-2.7153 J2.7153
N0240 M05
N0250 G04 P2
N0260 G00 Z10.0000
N0270 X68.4988 Y107.1000
N0280 Z3.2000
N0290 G28.1 Z3.00
N0300 G92 Z0.0
N0310 G00 Z1.6000
N0320 G92 Z0.0
N0330 G00 Z3.2000
N0340 M03
N0350 G04 P0.75
N0360 G01 Z1.6000 F500.0
N0370 Y101.1000 F1500.0
N0380 X140.0000
N0390 G02 X141.1000 Y100.0000 I0.0000 J-1.1000
N0400 G01 Y0.0000
N0410 G02 X140.0000 Y-1.1000 I-1.1000 J0.0000
N0420 G01 X0.0000
N0430 G02 X-1.1000 Y0.0000 I0.0000 J1.1000
N0440 G01 Y100.0000
N0450 G02 X0.0000 Y101.1000 I1.1000 J0.0000
N0460 G01 X68.4988
N0470 G03 X72.3388 Y104.9400 I0.0000 J3.8400
N0480 M05
N0490 G04 P2
N0500 G00 Z10.0000
N0510 X0.0000 Y0.0000
N0520 M05 M30
