N0010 (Filename: suporte p3 cabeçote.tap)
N0020 (Post processor: PROMA SERIES.scpost)
N0030 (Date: 11/02/2026)
N0040 G21 (Units: Metric)
N0050 G53 G90 G91.1 G40
N0060 F1
N0070 (Part: suporte p3 cabeçote)
N0080 (Operation: Offset externo, 0, T3: Perfuração 8-10-12mm)
N0090 M06 T3 F1500  (Perfuração 8-10-12mm)
N0100 G00 Z10.0000
N0110 X57.9893 Y127.1000
N0120 Z3.2000
N0130 G28.1 Z3.00
N0140 G92 Z0.0
N0150 G00 Z1.6000
N0160 G92 Z0.0
N0170 G00 Z3.2000
N0180 M03
N0190 G04 P0.75
N0200 G01 Z1.6000 F500.0
N0210 Y121.1000 F1500.0
N0220 X114.6092
N0230 G02 X125.7092 Y110.0000 I0.0000 J-11.1000
N0240 G01 Y35.0000
N0250 G03 X134.6092 Y26.1000 I8.9000 J0.0000
N0260 G01 X254.6092
N0270 G03 X263.5092 Y35.0000 I0.0000 J8.9000
N0280 G01 Y110.0000
N0290 G02 X274.6092 Y121.1000 I11.1000 J0.0000
N0300 G01 X383.2135
N0310 G02 X385.5667 Y120.0181 I0.0000 J-3.1000
N0320 G01 X390.0538 Y114.7862
N0330 G02 X390.3060 Y113.9025 I-0.8350 J-0.7161
N0340 G01 X372.7200 Y-0.1676
N0350 G02 X371.6329 Y-1.1000 I-1.0872 J0.1676
N0360 G01 X17.5856
N0370 G02 X16.4984 Y-0.1676 I0.0000 J1.1000
N0380 G01 X-1.0872 Y113.9025
N0390 G02 X-0.8350 Y114.7862 I1.0872 J0.1676
N0400 G01 X3.6522 Y120.0181
N0410 G02 X6.0053 Y121.1000 I2.3531 J-2.0181
N0420 G01 X57.9893
N0430 G03 X61.8293 Y124.9400 I0.0000 J3.8400
N0440 M05
N0450 G04 P2
N0460 G00 Z10.0000
N0470 X0.0000 Y0.0000
N0480 M05 M30
