N0010 (Filename: suporte motor p2.tap)
N0020 (Post processor: PROMA SERIES.scpost)
N0030 (Date: 11/02/2026)
N0040 G21 (Units: Metric)
N0050 G53 G90 G91.1 G40
N0060 F1
N0070 (Part: suporte motor p2)
N0080 (Operation: Offset externo, 0, T3: Perfuração 8-10-12mm)
N0090 M06 T3 F1500  (Perfuração 8-10-12mm)
N0100 G00 Z10.0000
N0110 X96.9279 Y177.1000
N0120 Z3.2000
N0130 G28.1 Z3.00
N0140 G92 Z0.0
N0150 G00 Z1.6000
N0160 G92 Z0.0
N0170 G00 Z3.2000
N0180 M03
N0190 G04 P0.75
N0200 G01 Z1.6000 F500.0
N0210 Y171.1000 F1500.0
N0220 X200.0000
N0230 G02 X201.1000 Y170.0000 I0.0000 J-1.1000
N0240 G01 Y0.0000
N0250 G02 X200.0000 Y-1.1000 I-1.1000 J0.0000
N0260 G01 X0.0000
N0270 G02 X-1.1000 Y0.0000 I0.0000 J1.1000
N0280 G01 Y170.0000
N0290 G02 X0.0000 Y171.1000 I1.1000 J0.0000
N0300 G01 X96.9279
N0310 G03 X100.7679 Y174.9400 I0.0000 J3.8400
N0320 M05
N0330 G04 P2
N0340 G00 Z10.0000
N0350 X0.0000 Y0.0000
N0360 M05 M30
