N0010 (Filename: suporte p2 roletes.tap)
N0020 (Post processor: PROMA SERIES.scpost)
N0030 (Date: 11/02/2026)
N0040 G21 (Units: Metric)
N0050 G53 G90 G91.1 G40
N0060 F1
N0070 (Part: suporte p2 roletes)
N0080 (Operation: Offset externo, 0, T3: Perfuração 8-10-12mm)
N0090 M06 T3 F1500  (Perfuração 8-10-12mm)
N0100 G00 Z10.0000
N0110 X23.8506 Y130.0120
N0120 Z3.2000
N0130 G28.1 Z3.00
N0140 G92 Z0.0
N0150 G00 Z1.6000
N0160 G92 Z0.0
N0170 G00 Z3.2000
N0180 M03
N0190 G04 P0.75
N0200 G01 Z1.6000 F500.0
N0210 X20.1024 Y125.3268 F1500.0
N0220 X50.0000 Y101.4087
N0230 X99.3128 Y140.8590
N0240 G02 X101.1000 Y140.0000 I0.6872 J-0.8590
N0250 G01 Y0.0000
N0260 G02 X100.0000 Y-1.1000 I-1.1000 J0.0000
N0270 G01 X0.0000
N0280 G02 X-1.1000 Y0.0000 I0.0000 J1.1000
N0290 G01 Y140.0000
N0300 G02 X0.6872 Y140.8590 I1.1000 J0.0000
N0310 G01 X20.1024 Y125.3268
N0320 G03 X25.4998 Y125.9265 I2.3988 J2.9985
N0330 M05
N0340 G04 P2
N0350 G00 Z10.0000
N0360 X0.0000 Y0.0000
N0370 M05 M30
