N0010 (Filename: suporte p1 cabeçote.tap)
N0020 (Post processor: PROMA SERIES.scpost)
N0030 (Date: 11/02/2026)
N0040 G21 (Units: Metric)
N0050 G53 G90 G91.1 G40
N0060 F1
N0070 (Part: suporte p1 cabeçote)
N0080 (Operation: Offset externo, 0, T3: Perfuração 8-10-12mm)
N0090 M06 T3 F1500  (Perfuração 8-10-12mm)
N0100 G00 Z10.0000
N0110 X286.9500 Y268.5500
N0120 Z3.2000
N0130 G28.1 Z3.00
N0140 G92 Z0.0
N0150 G00 Z1.6000
N0160 G92 Z0.0
N0170 G00 Z3.2000
N0180 M03
N0190 G04 P0.75
N0200 G01 Z1.6000 F500.0
N0210 Y274.5500 F1500.0
N0220 X113.0500
N0230 Y131.7500
N0240 X460.8500
N0250 Y274.5500
N0260 X286.9500
N0270 G03 X283.1100 Y270.7100 I0.0000 J-3.8400
N0280 M05
N0290 G04 P2
N0300 G00 Z10.0000
N0310 X260.9191 Y454.6101
N0320 Z3.2000
N0330 G28.1 Z3.00
N0340 G92 Z0.0
N0350 G00 Z1.6000
N0360 G92 Z0.0
N0370 G00 Z3.2000
N0380 M03
N0390 G04 P0.75
N0400 G01 Z1.6000 F500.0
N0410 X264.3132 Y458.0042 F1500.0
N0420 G03 I-2.4042 J-2.4042
N0430 X260.7009 Y455.5905 I-0.5993 J-3.0130
N0440 M05
N0450 G04 P2
N0460 G00 Z10.0000
N0470 X311.0011 Y454.6101
N0480 Z3.2000
N0490 G28.1 Z3.00
N0500 G92 Z0.0
N0510 G00 Z1.6000
N0520 G92 Z0.0
N0530 G00 Z3.2000
N0540 M03
N0550 G04 P0.75
N0560 G01 Z1.6000 F500.0
N0570 X314.3952 Y458.0042 F1500.0
N0580 G03 I-2.4042 J-2.4042
N0590 X310.7829 Y455.5905 I-0.5993 J-3.0130
N0600 M05
N0610 G04 P2
N0620 G00 Z10.0000
N0630 X561.4101 Y252.7471
N0640 Z3.2000
N0650 G28.1 Z3.00
N0660 G92 Z0.0
N0670 G00 Z1.6000
N0680 G92 Z0.0
N0690 G00 Z3.2000
N0700 M03
N0710 G04 P0.75
N0720 G01 Z1.6000 F500.0
N0730 X564.8042 Y256.1412 F1500.0
N0740 G03 I-2.4042 J-2.4042
N0750 X561.1919 Y253.7275 I-0.5993 J-3.0130
N0760 M05
N0770 G04 P2
N0780 G00 Z10.0000
N0790 X561.4101 Y214.3539
N0800 Z3.2000
N0810 G28.1 Z3.00
N0820 G92 Z0.0
N0830 G00 Z1.6000
N0840 G92 Z0.0
N0850 G00 Z3.2000
N0860 M03
N0870 G04 P0.75
N0880 G01 Z1.6000 F500.0
N0890 X564.8042 Y210.9598 F1500.0
N0900 G03 I-2.4042 J2.4042
N0910 X562.3905 Y214.5721 I-3.0130 J0.5993
N0920 M05
N0930 G04 P2
N0940 G00 Z10.0000
N0950 X312.9809 Y10.5101
N0960 Z3.2000
N0970 G28.1 Z3.00
N0980 G92 Z0.0
N0990 G00 Z1.6000
N1000 G92 Z0.0
N1010 G00 Z3.2000
N1020 M03
N1030 G04 P0.75
N1040 G01 Z1.6000 F500.0
N1050 X309.5868 Y13.9042 F1500.0
N1060 G03 I2.4042 J-2.4042
N1070 X312.0005 Y10.2919 I3.0130 J-0.5993
N1080 M05
N1090 G04 P2
N1100 G00 Z10.0000
N1110 X262.8989 Y10.5101
N1120 Z3.2000
N1130 G28.1 Z3.00
N1140 G92 Z0.0
N1150 G00 Z1.6000
N1160 G92 Z0.0
N1170 G00 Z3.2000
N1180 M03
N1190 G04 P0.75
N1200 G01 Z1.6000 F500.0
N1210 X259.5048 Y13.9042 F1500.0
N1220 G03 I2.4042 J-2.4042
N1230 X261.9185 Y10.2919 I3.0130 J-0.5993
N1240 M05
N1250 G04 P2
N1260 G00 Z10.0000
N1270 X12.4899 Y214.3539
N1280 Z3.2000
N1290 G28.1 Z3.00
N1300 G92 Z0.0
N1310 G00 Z1.6000
N1320 G92 Z0.0
N1330 G00 Z3.2000
N1340 M03
N1350 G04 P0.75
N1360 G01 Z1.6000 F500.0
N1370 X9.0958 Y210.9598 F1500.0
N1380 G03 I2.4042 J2.4042
N1390 X12.7081 Y213.3735 I0.5993 J3.0130
N1400 M05
N1410 G04 P2
N1420 G00 Z10.0000
N1430 X12.4899 Y252.7471
N1440 Z3.2000
N1450 G28.1 Z3.00
N1460 G92 Z0.0
N1470 G00 Z1.6000
N1480 G92 Z0.0
N1490 G00 Z3.2000
N1500 M03
N1510 G04 P0.75
N1520 G01 Z1.6000 F500.0
N1530 X9.0958 Y256.1412 F1500.0
N1540 G03 I2.4042 J-2.4042
N1550 X11.5095 Y252.5289 I3.0130 J-0.5993
N1560 M05
N1570 G04 P2
N1580 G00 Z10.0000
N1590 X-3.7024 Y268.9524
N1600 Z3.2000
N1610 G28.1 Z3.00
N1620 G92 Z0.0
N1630 G00 Z1.6000
N1640 G92 Z0.0
N1650 G00 Z3.2000
N1660 M03
N1670 G04 P0.75
N1680 G01 Z1.6000 F500.0
N1690 X0.5402 Y264.7098 F1500.0
N1700 G02 X4.5000 Y266.3500 I3.9598 J-3.9598
N1710 G01 X9.4250
N1720 G03 X17.7500 Y274.6750 I-0.0000 J8.3250
N1730 G01 Y443.2500
N1740 G02 X23.8500 Y449.3500 I6.1000 J0.0000
N1750 G01 X240.9750
N1760 G03 X249.3000 Y457.6750 I0.0000 J8.3250
N1770 G01 Y462.6000
N1780 G02 X254.9000 Y468.2000 I5.6000 J0.0000
N1790 G01 X319.0000
N1800 G02 X324.6000 Y462.6000 I0.0000 J-5.6000
N1810 G01 Y457.6750
N1820 G03 X332.9250 Y449.3500 I8.3250 J0.0000
N1830 G01 X550.0500
N1840 G02 X556.1500 Y443.2500 I0.0000 J-6.1000
N1850 G01 Y274.6750
N1860 G03 X564.4750 Y266.3500 I8.3250 J0.0000
N1870 G01 X569.4000
N1880 G02 X575.0000 Y260.7500 I0.0000 J-5.6000
N1890 G01 Y206.3500
N1900 G02 X569.4000 Y200.7500 I-5.6000 J-0.0000
N1910 G01 X564.4750
N1920 G03 X556.1500 Y192.4250 I0.0000 J-8.3250
N1930 G01 Y23.8500
N1940 G02 X550.0500 Y17.7500 I-6.1000 J0.0000
N1950 G01 X332.9250
N1960 G03 X324.6000 Y9.4250 I0.0000 J-8.3250
N1970 G01 Y4.5000
N1980 G02 X319.0000 Y-1.1000 I-5.6000 J0.0000
N1990 G01 X254.9000
N2000 G02 X249.3000 Y4.5000 I0.0000 J5.6000
N2010 G01 Y9.4250
N2020 G03 X240.9750 Y17.7500 I-8.3250 J-0.0000
N2030 G01 X23.8500
N2040 G02 X17.7500 Y23.8500 I0.0000 J6.1000
N2050 G01 Y192.4250
N2060 G03 X9.4250 Y200.7500 I-8.3250 J0.0000
N2070 G01 X4.5000
N2080 G02 X-1.1000 Y206.3500 I0.0000 J5.6000
N2090 G01 Y260.7500
N2100 G02 X0.5402 Y264.7098 I5.6000 J0.0000
N2110 G03 Y270.1404 I-2.7153 J2.7153
N2120 M05
N2130 G04 P2
N2140 G00 Z10.0000
N2150 X0.0000 Y0.0000
N2160 M05 M30
